X:255
T:
R:polska
S:Efter klockar Veström i Vallstena.
O:Gotland, Vallstena
M:3/4
L:1/16
K:D
D2E2 F2G2 A2dA|G2BG [FA]4 [FA]4|BABc d2e2 f2g2|efed cdcB AFGE|
D2E2 F2G2 A2dA|G2BG [FA]4 [FA]4|BABc d2e2 f2g2|egec [Fd]4 [Fd]4::
c2cd edef g2e2|e2a2 a2^g2 b2a2|B2c2 d2e2 f2g2|efed cdcB AFGE|
D2DE F2FG A2dA|G2BG [EA]4 [EA]2G2|FDEF GABc defg|egec [Fd]4 [Fd]4:|

